X:1
T:Title
%%score { 1 | 2 } { 3 | 4 }
L:1/8
Q:1/4=105
M:4/4
K:Eb
V:1 treble nm="Grand Piano, Soprano"
V:2 treble 
V:3 bass nm="Choir Pad, Covenant (Barnby), 1874"
V:4 bass 
V:1
 G2 c2 c2 B2 | A2 G6 | G2 e2 dc d2 | d2 c4 c2- | c2 B2 c2 A2 | GF G2 A2 F2 | G2 E2 E2 F2 | F2 G6 | %8
w: By~Joseph~Barnby,~1874 * * *||||||||
 D2 E2 F2 G2- | GG G2 c2 c2 | d2 e6 | e2 c2 B2 G2 | A2 G2 FE D2 | D2 C6- | C2 z2 z4 |] %15
w: |||||||
V:2
 z2 E2 E2 G2 | F2 D6 | z2 G2 C2 A2 | GF E4 A2- | A2 G2 G2 F2 | D2 E2 E2 D2 | D2 C2 C2 C2 | %7
 C2 =B,6 | =B,2 C2 D2 E2- | EE E2 E2 A2 | GF E6 | E2 E2 F2 E2 | E2 D2 C2 C2 | =B,2 z2 z4 | z8 |] %15
V:3
 G,2 G,2 A,2 G,2 | C2 =B,6 | D2 C2 DEDC | =B,2 C4 E2- | E2 E2 E2 C2 | B,2 B,2 A,2 A,2 | %6
 G,2 .G,4 F,E, | D,C, D,6 | G,2 G,2 B,2 B,2- | B,B, B,2 A,2 C2 | B,A, G,6 | B,2 A,2 F,2 B,2 | %12
 E,2 G,2 G,2 A,2 | G,F, E,6- | E,2 z2 z4 |] %15
V:4
 z2 C,2 A,,2 E,2 | F,2 G,6 | =B,2 z2 A,2 F,2 | G,2 C,4 A,,2- | A,,2 E,2 C,2 F,2 | %5
 B,,2 E,2 C,2 C,2 | =B,,2 C,2 C,C, A,,2 | A,,2 G,,6 | G,,2 C,2 B,,2 E,2- | E,E, E,2 z2 F,2 | %10
 B,,2 E,6 | G,2 z2 D,2 E,2 | C,2 =B,,2 C,2 F,,2 | G,,2 C,6- | C,2 z2 z4 |] %15

